X: 19
T:Lively Jenny
R:jig
S:Rodney Miller Airplang
Z:Canada
M:6/8
L:1/8
K:Dmaj
f3 fgf |ecA ecA |Bcd e2A|Bcd efg |\
f3 fgf |ecA ecA |Bcd e2A|1 Bcd d2e:|2\
Bcdd2=c||B3B=cB |G3B=cB |AFD dAd |\
cAc =cd=c |B3B=cB |G3B=cB |A2A ABc |1d3dc=c :|2d6||
